assets/icons/marker-tick.svg

<svg width="20" height="20" viewBox="0 0 20 20" fill="none" xmlns="http://www.w3.org/2000/svg">
<path d="M8.54501 12.9091L4.90865 9.27273L5.227 8.95211C5.61712 8.55923 6.25221 8.55811 6.64371 8.94961L8.54501 10.8509L13.3554 6.04052C13.7469 5.64902 14.382 5.65014 14.7721 6.04302L15.0905 6.36364M15.0905 2H4.90865C4.10137 2 3.4541 2.64727 3.4541 3.45455V12.8582C3.4541 13.36 3.70865 13.8036 4.0941 14.0655L8.88995 17.2607C9.56187 17.7084 10.4371 17.7081 11.1087 17.2601L15.8977 14.0655C16.2832 13.8036 16.545 13.36 16.545 12.8582V3.45455C16.545 3.06878 16.3918 2.69881 16.119 2.42603C15.8462 2.15325 15.4762 2 15.0905 2Z" fill="currentColor"/>
</svg>

<svg xmlns="http://www.w3.org/2000/svg" width="20" height="20" fill="none" viewBox="0 0 20 20"><path fill="currentColor" d="M8.545 12.91 4.909 9.272l.318-.32a1 1 0 0 1 1.417-.003l1.901 1.9 4.81-4.81a1 1 0 0 1 1.417.003l.319.32m0-4.363H4.909a1.45 1.45 0 0 0-1.455 1.455v9.403c0 .502.255.946.64 1.207L8.89 17.26a2 2 0 0 0 2.219 0l4.789-3.195c.385-.262.647-.706.647-1.208V3.455A1.454 1.454 0 0 0 15.09 2"/></svg>
